X:12732
T:Paddy's Trip To Scotland
R:Reel
S:(Sean Smyth)
H:
N:
D:From (unknown) solo recital
Z:Adrian Scahill
M:4/4
L:1/8
K:D
dcdB BAGF|GABd cABc|d2ed cABc|AccB cABd|\
dcdB BAGF|GABd cABc|d2ed cABc|dfec d3B:||\
Adfd Adfd|fggf edcB|Acec Acec|effe dcBc|
Adfd Adfd|fggf efge|aAA2 dcBA|(3Bcd ec d3B:||
